X:2868
T:Polska
T:ur Kumlins notsamling (nr 204)
B:Kumlins notsamling, nr 204
B:http://www.smus.se/earkiv/fmk/browselarge.php?lang=sw&katalogid=Ma+4&bildnr=00040
O:Närke
R:Polska
Z:Nils Liberg
M:3/4
L:1/16
K:Gm
d2>^f2 g2>b2 f2>a2 | a2>g2 g2>^f2 d2>^c2 | d2>^f2 g2>b2 f2>a2 | g2>^f2 d4z2 ::
B2 | d2>e2 c2cd B2Bc | d2ed cBAB G4 | d2de c2cd B2Bd | cBAB G6B2 | 
     d2>e2 c2cd B2Bc | d2ed cBAB G4 | d2de c2cd B2Bc | d2>^f2 g6 :|
(:musicend:)
(:music:)
